X:1
T:Jamison, SM
T:Jamison, SM
T:Henry Thomas Smart, 1866
T:Public Domain Courtesy of the Cyber Hymnal™
C:Henry Thomas Smart, 1866
Z:Public Domain
Z:Courtesy of the Cyber Hymnal™
%%score ( 1 2 ) ( 3 4 )
L:1/8
Q:1/4=115
M:4/4
K:E
V:1 treble 
V:2 treble 
V:3 bass 
V:4 bass 
V:1
 [EB]2 | [EG]2 E2 [EG]2 [FB]2 | [Ee]6 [Ec]2 | [EB]2 E2 [FB]2 (AG) | [DF]6 [FB]2 | %5
 [EG]2 [Gc]2 [F^A]2 [CF]2 | [FB]2 [Fe]2 [Fd]2 [Fc]2 | [B,B]2 [CE]2 [FA]2 (GF) | E6 |] %9
V:2
 x2 | x2 E2 x4 | x8 | x2 E2 E2 x2 | x8 | x8 | x8 | x6 D2 | E6 |] %9
V:3
 [E,G,]2 | [E,B,]2 [G,B,]2 [E,B,]2 [D,F,]2 | [C,G,]6 [A,,A,]2 | [G,,B,]2 [C,G,]2 [D,F,]2 [E,B,]2 | %4
 [B,,B,]6 [D,B,]2 | [E,B,]2 [C,E]2 [F,C]2 ^A,2 | [D,B,]2 [C,^A,]2 [B,,B,]2 (CD) | %7
 [G,,G,E]2 [C,G,]2 [A,,C]2 (B,A,) | [E,G,]6 |] %9
V:4
 x2 | x8 | x8 | x8 | x8 | x6 (F,E,) | x6 [=A,,=A,]2 | x6 B,,2 | x6 |] %9

